X:49
T:Midnight Ramble, The
M: C|
L:1/8
B:Thompson's Compleat Collection of 200 Favourite Country Dances, vol. 3 (London, 1773)
Z:Transcribed and edited by Flynn Titford-Mock, 2007
Z:abc's:AK/Fiddler's Companion
K:D
Bc | d4 A4 | F3E D2F2 | E2c2E2c2 | d2A2 DEFD | d4 A4 | F3E D2A2 | B2G2F2E2 | D/D/D D2z2 :|
|: ag | f3e d2a2 | f2d2 fgaf | e3d c2g2 | e2c2 efge | f2d2g2e2 | a2f2b2g2 | f2d2e2f2 | d/d/d d2z2 :|

